X:169
T:Richmond Green. Ru1.169
%%VWML:RutherfordVol1-2248-p65-0p65
Z:Transcription by Village Music Project, Steve Mansfield July 2015
F:http://www.village-music-project.org.uk/
F:http://www.vwml.org/record/RutherfordVol1/2248/p65
L:1/8
W:Hay contrary sides and on yr own sides .| Cross
W:over two Cu.: lead up to ye top foot it & cast off :|
W:Foot it corners & turn foot it ye other corners and
W:turn yr Partner .|. Hands across half round with
W: ye 2nd Cu. and back again right hand and left quite
W:round with the 2d Couple :|
Q:1/4=100
N:NB:D2 in Mss, Amended to balance bar lengths
K:D
|:g | faef dFDF | G/F/E/D/ CE G2Gg | faef dAFA | A/G/F/E/ DF A2Ac |
BGAF GECE | G/F/E/D/ CE G2GE | FDAF BGcA | B/c/d DF A2A :|
|: g | Tf>ede f/e/f/g/ af | gece g2ga | Tf>ede f/e/f/g/ af | afdf a2af |
Tg>ag>e Tf>gfd | gece g2fg |  a/g/f g/f/e fdec | dBAF D/D/D "NB"D :|]
T:Medway. Ru1.170
B:Rutherford's Country Dances Vol 1, 1756
Z:village music project, Steve Mansfield July 2015
M:6/8
L:1/8
W:The first Cu. cast off & hands round with ye 2d
W:Cu. The same with the 3d Cu. .|. Lead up to the
W:Top, foot it, and cast off lead down thro' the 3d Cu.
W:foot it and cast up .|. The Man whole figures with
W:the 3d Cu. and ye Wo. with ye 2d Cu. at the same
W:time, right hand and left quite round with the 2d Couple :|
Q:3/8=90
N:Dotted in Mss, cf every other occurrence of phrase
K:C
|:"NB"c>dc TB2(A/B/) | cBA GFE | F2d E2c | Ddc TB2(A/B/) |
cdc TB2(A/B/) | cBA GFE | F2d E2c | DcB c3 :|
|: c2e gec | F2a E2g | D2f edc | B2c dBG |
c2e gec | F2a E2g | Dfe dcB | AD^F G2G/F/ |
EGc TB2A/B/ | cBA GFE | F2d E2c | Ddc TB2A/B/ |
cdc TB2A/B/ | cBA GFE | F2d E2c | DcB c3 :|]
